svgs/duotone/user-robot.svg

<svg xmlns="http://www.w3.org/2000/svg" viewBox="0 0 448 512"><!--! Font Awesome Pro 6.6.0 by @fontawesome - https://fontawesome.com License - https://fontawesome.com/license (Commercial License) Copyright 2024 Fonticons, Inc. --><defs><style>.fa-secondary{opacity:.4}</style></defs><path class="fa-secondary" d="M32 160l0 64c0 17.7 14.3 32 32 32l16 0 0-128-16 0c-17.7 0-32 14.3-32 32zM144 464l0 48 32 0 0-48c0-8.8-7.2-16-16-16s-16 7.2-16 16zM208 16l0 48 32 0 0-48c0-8.8-7.2-16-16-16s-16 7.2-16 16zm0 448l0 48 32 0 0-48c0-8.8-7.2-16-16-16s-16 7.2-16 16zm64 0l0 48 32 0 0-48c0-8.8-7.2-16-16-16s-16 7.2-16 16zm96-336l0 128 16 0c17.7 0 32-14.3 32-32l0-64c0-17.7-14.3-32-32-32l-16 0z"/><path class="fa-primary" d="M80 128c0-35.3 28.7-64 64-64l160 0c35.3 0 64 28.7 64 64l0 128c0 35.3-28.7 64-64 64l-160 0c-35.3 0-64-28.7-64-64l0-128zm112 32a32 32 0 1 0 -64 0 32 32 0 1 0 64 0zm96 32a32 32 0 1 0 0-64 32 32 0 1 0 0 64zM144 256a16 16 0 1 0 32 0 16 16 0 1 0 -32 0zm80-16a16 16 0 1 0 0 32 16 16 0 1 0 0-32zm48 16a16 16 0 1 0 32 0 16 16 0 1 0 -32 0zM0 448c0-53 43-96 96-96l256 0c53 0 96 43 96 96l0 32c0 17.7-14.3 32-32 32l-64 0 0-64c0-17.7-14.3-32-32-32l-192 0c-17.7 0-32 14.3-32 32l0 64-64 0c-17.7 0-32-14.3-32-32l0-32z"/></svg>

<svg xmlns="http://www.w3.org/2000/svg" viewBox="0 0 448 512"><!--! Font Awesome Pro 6.4.0 by @fontawesome - https://fontawesome.com License - https://fontawesome.com/license (Commercial License) Copyright 2023 Fonticons, Inc. --><defs><style>.fa-secondary{opacity:.4}</style></defs><path class="fa-primary" d="M80 128c0-35.3 28.7-64 64-64H304c35.3 0 64 28.7 64 64V256c0 35.3-28.7 64-64 64H144c-35.3 0-64-28.7-64-64V128zm112 32a32 32 0 1 0 -64 0 32 32 0 1 0 64 0zm96 32a32 32 0 1 0 0-64 32 32 0 1 0 0 64zM144 256a16 16 0 1 0 32 0 16 16 0 1 0 -32 0zm80-16a16 16 0 1 0 0 32 16 16 0 1 0 0-32zm48 16a16 16 0 1 0 32 0 16 16 0 1 0 -32 0zM0 448c0-53 43-96 96-96H352c53 0 96 43 96 96v32c0 17.7-14.3 32-32 32H352V448c0-17.7-14.3-32-32-32H128c-17.7 0-32 14.3-32 32v64H32c-17.7 0-32-14.3-32-32V448z"/><path class="fa-secondary" d="M240 16c0-8.8-7.2-16-16-16s-16 7.2-16 16V64h32V16zM64 128c-17.7 0-32 14.3-32 32v64c0 17.7 14.3 32 32 32H80V128H64zM176 464c0-8.8-7.2-16-16-16s-16 7.2-16 16v48h32V464zm64 0c0-8.8-7.2-16-16-16s-16 7.2-16 16v48h32V464zm48-16c-8.8 0-16 7.2-16 16v48h32V464c0-8.8-7.2-16-16-16zM416 160c0-17.7-14.3-32-32-32H368V256h16c17.7 0 32-14.3 32-32V160z"/></svg>
